fastlane/metadata/android/en-US/images/buttons/github.svg

<!--
  - ImageToolbox is an image editor for android
  - Copyright (c) 2024 T8RIN (Malik Mukhametzyanov)
  -
  - Licensed under the Apache License, Version 2.0 (the "License");
  - you may not use this file except in compliance with the License.
  -
  - Unless required by applicable law or agreed to in writing, software
  - distributed under the License is distributed on an "AS IS" BASIS,
  - WITHOUT WARRANTIES OR CONDITIONS OF ANY KIND, either express or implied.
  - See the License for the specific language governing permissions and
  - limitations under the License.
  -
  - You should have received a copy of the Apache License
  - along with this program.  If not, see <http://www.apache.org/licenses/LICENSE-2.0>.
  -->

<svg fill="none" height="40" viewBox="0 0 128 40" width="128" xmlns="http://www.w3.org/2000/svg">
    <g clip-path="url(#clip0_250_194)">
        <path
            d="M108 0H20C8.9543 0 0 8.9543 0 20C0 31.0457 8.9543 40 20 40H108C119.046 40 128 31.0457 128 20C128 8.9543 119.046 0 108 0Z"
            fill="#8E4D31" />
        <path clip-rule="evenodd"
            d="M27.9731 11C23.0112 11 19 15.125 19 20.2281C19 24.3074 21.5701 27.7604 25.1356 28.9825C25.5814 29.0744 25.7446 28.7839 25.7446 28.5396C25.7446 28.3257 25.73 27.5924 25.73 26.8283C23.2338 27.3784 22.714 25.7283 22.714 25.7283C22.3129 24.6588 21.7185 24.3839 21.7185 24.3839C20.9016 23.8186 21.778 23.8186 21.778 23.8186C22.6843 23.8797 23.1598 24.7658 23.1598 24.7658C23.9619 26.1713 25.2544 25.7742 25.7744 25.5297C25.8486 24.9338 26.0865 24.5213 26.339 24.2922C24.3482 24.0783 22.2536 23.2838 22.2536 19.7392C22.2536 18.7308 22.6099 17.9058 23.1745 17.2642C23.0854 17.035 22.7734 16.0876 23.2638 14.8195C23.2638 14.8195 24.0214 14.575 25.7298 15.7668C26.4612 15.5648 27.2155 15.462 27.9731 15.4612C28.7308 15.4612 29.5031 15.5682 30.2163 15.7668C31.9249 14.575 32.6825 14.8195 32.6825 14.8195C33.1729 16.0876 32.8607 17.035 32.7716 17.2642C33.3511 17.9058 33.6927 18.7308 33.6927 19.7392C33.6927 23.2838 31.5981 24.0629 29.5924 24.2922C29.9193 24.5824 30.2015 25.1324 30.2015 26.0033C30.2015 27.2408 30.1868 28.234 30.1868 28.5394C30.1868 28.7839 30.3502 29.0744 30.7958 28.9827C34.3613 27.7602 36.9314 24.3074 36.9314 20.2281C36.9461 15.125 32.9202 11 27.9731 11Z"
            fill="#ffffff" fill-rule="evenodd" />
        <path d="M54.7356 26.1277C53.8716 26.1277 53.0769 25.989 52.3516 25.7117C51.6263 25.4237 50.9969 25.0237 50.4636 24.5117C49.9303 23.989 49.5143 23.381 49.2156 22.6877C48.9169 21.9944 48.7676 21.2317 48.7676 20.3997C48.7676 19.5677 48.9169 18.805 49.2156 18.1117C49.5143 17.4184 49.9303 16.8157 50.4636 16.3037C51.0076 15.781 51.6423 15.381 52.3676 15.1037C53.0929 14.8157 53.8929 14.6717 54.7676 14.6717C55.6529 14.6717 56.4636 14.8157 57.1996 15.1037C57.9356 15.3917 58.5596 15.8237 59.0716 16.3997L58.0796 17.3917C57.6209 16.9437 57.1196 16.6184 56.5756 16.4157C56.0423 16.2024 55.4609 16.0957 54.8316 16.0957C54.1916 16.0957 53.5943 16.2024 53.0396 16.4157C52.4956 16.629 52.0209 16.9277 51.6156 17.3117C51.2209 17.6957 50.9116 18.1544 50.6876 18.6877C50.4743 19.2104 50.3676 19.781 50.3676 20.3997C50.3676 21.0077 50.4743 21.5784 50.6876 22.1117C50.9116 22.6344 51.2209 23.093 51.6156 23.4877C52.0209 23.8717 52.4956 24.1704 53.0396 24.3837C53.5836 24.597 54.1756 24.7037 54.8156 24.7037C55.4129 24.7037 55.9836 24.613 56.5276 24.4317C57.0823 24.2397 57.5943 23.925 58.0636 23.4877L58.9756 24.7037C58.4209 25.173 57.7703 25.5304 57.0236 25.7757C56.2876 26.0104 55.5249 26.1277 54.7356 26.1277ZM57.4396 24.4957V20.3357H58.9756V24.7037L57.4396 24.4957ZM61.315 25.9997V17.5197H62.851V25.9997H61.315ZM62.083 15.8877C61.7843 15.8877 61.5336 15.7917 61.331 15.5997C61.139 15.4077 61.043 15.173 61.043 14.8957C61.043 14.6077 61.139 14.3677 61.331 14.1757C61.5336 13.9837 61.7843 13.8877 62.083 13.8877C62.3816 13.8877 62.627 13.9837 62.819 14.1757C63.0216 14.357 63.123 14.5864 63.123 14.8637C63.123 15.1517 63.027 15.397 62.835 15.5997C62.643 15.7917 62.3923 15.8877 62.083 15.8877ZM68.1957 26.0957C67.3424 26.0957 66.6811 25.8664 66.2117 25.4077C65.7424 24.949 65.5077 24.293 65.5077 23.4397V15.6637H67.0437V23.3757C67.0437 23.8344 67.1557 24.1864 67.3797 24.4317C67.6144 24.677 67.9451 24.7997 68.3717 24.7997C68.8517 24.7997 69.2517 24.6664 69.5717 24.3997L70.0517 25.5037C69.8171 25.7064 69.5344 25.8557 69.2037 25.9517C68.8837 26.0477 68.5477 26.0957 68.1957 26.0957ZM64.0677 18.7837V17.5197H69.4757V18.7837H64.0677ZM79.6647 14.7997H81.2647V25.9997H79.6647V14.7997ZM73.2327 25.9997H71.6327V14.7997H73.2327V25.9997ZM79.8087 21.0077H73.0727V19.6157H79.8087V21.0077ZM87.4611 26.0957C86.7358 26.0957 86.0958 25.9624 85.5411 25.6957C84.9971 25.429 84.5704 25.0237 84.2611 24.4797C83.9624 23.925 83.8131 23.2317 83.8131 22.3997V17.5197H85.3491V22.2237C85.3491 23.0557 85.5464 23.6797 85.9411 24.0957C86.3464 24.5117 86.9118 24.7197 87.6371 24.7197C88.1704 24.7197 88.6344 24.613 89.0291 24.3997C89.4238 24.1757 89.7278 23.8557 89.9411 23.4397C90.1544 23.013 90.2611 22.501 90.2611 21.9037V17.5197H91.7971V25.9997H90.3411V23.7117L90.5811 24.3197C90.3038 24.885 89.8878 25.3224 89.3331 25.6317C88.7784 25.941 88.1544 26.0957 87.4611 26.0957ZM98.7172 26.0957C97.9919 26.0957 97.3359 25.9357 96.7492 25.6157C96.1732 25.285 95.7146 24.7997 95.3732 24.1597C95.0426 23.5197 94.8772 22.7197 94.8772 21.7597C94.8772 20.7997 95.0479 19.9997 95.3892 19.3597C95.7412 18.7197 96.2052 18.2397 96.7812 17.9197C97.3679 17.5997 98.0132 17.4397 98.7172 17.4397C99.5492 17.4397 100.286 17.621 100.926 17.9837C101.566 18.3464 102.072 18.853 102.446 19.5037C102.819 20.1437 103.006 20.8957 103.006 21.7597C103.006 22.6237 102.819 23.381 102.446 24.0317C102.072 24.6824 101.566 25.189 100.926 25.5517C100.286 25.9144 99.5492 26.0957 98.7172 26.0957ZM94.2212 25.9997V14.1277H95.7572V19.7757L95.5972 21.7437L95.6932 23.7117V25.9997H94.2212ZM98.5892 24.7517C99.1332 24.7517 99.6186 24.629 100.046 24.3837C100.483 24.1384 100.824 23.7917 101.07 23.3437C101.326 22.885 101.454 22.357 101.454 21.7597C101.454 21.1517 101.326 20.629 101.07 20.1917C100.824 19.7437 100.483 19.397 100.046 19.1517C99.6186 18.9064 99.1332 18.7837 98.5892 18.7837C98.0559 18.7837 97.5706 18.9064 97.1332 19.1517C96.7066 19.397 96.3652 19.7437 96.1092 20.1917C95.8639 20.629 95.7412 21.1517 95.7412 21.7597C95.7412 22.357 95.8639 22.885 96.1092 23.3437C96.3652 23.7917 96.7066 24.1384 97.1332 24.3837C97.5706 24.629 98.0559 24.7517 98.5892 24.7517Z"
            fill="#ffffff" />
    </g>
    <defs>
        <clipPath id="clip0_250_194">
            <rect fill="white" height="40" width="128" />
        </clipPath>
    </defs>
</svg>

<svg xmlns="http://www.w3.org/2000/svg" viewBox="0 0 128 40"><defs><style>.cls-1{fill:none;}.cls-2{fill:#8e4e31;}.cls-3,.cls-4{fill:#fff;}.cls-3{fill-rule:evenodd;}.cls-4{font-size:16px;font-family:MyanmarText-Bold, Myanmar Text;font-weight:700;}</style></defs><g id="Layer_2" data-name="Layer 2"><g id="Layer_1-2" data-name="Layer 1"><rect class="cls-1" width="128" height="40"/><path class="cls-2" d="M108,0H20a20,20,0,0,0,0,40h88a20,20,0,0,0,0-40Z"/><path class="cls-3" d="M28,11a9.09,9.09,0,0,0-9,9.23A9.2,9.2,0,0,0,25.14,29a.44.44,0,0,0,.6-.44c0-.21,0-.95,0-1.71-2.5.55-3-1.1-3-1.1a2.38,2.38,0,0,0-1-1.35c-.82-.56.06-.56.06-.56a1.89,1.89,0,0,1,1.38.95,1.88,1.88,0,0,0,2.61.76,2,2,0,0,1,.57-1.24c-2-.21-4.09-1-4.09-4.55a3.7,3.7,0,0,1,.92-2.48,3.47,3.47,0,0,1,.09-2.44s.76-.25,2.47.95A8.13,8.13,0,0,1,28,15.46a8.48,8.48,0,0,1,2.25.31c1.7-1.2,2.46-.95,2.46-.95a3.41,3.41,0,0,1,.09,2.44,3.61,3.61,0,0,1,.92,2.48c0,3.54-2.09,4.32-4.1,4.55A2.2,2.2,0,0,1,30.2,26c0,1.24,0,2.23,0,2.54s.16.53.61.44a9.2,9.2,0,0,0,6.13-8.75A9.08,9.08,0,0,0,28,11Z"/><text class="cls-4" transform="translate(48.77 26.13)">GitHub</text></g></g></svg>
